img/prop-icon12.svg

<svg width="30" height="30" viewBox="0 0 30 30" fill="none" xmlns="http://www.w3.org/2000/svg">
<path d="M28.125 14.0596C28.1244 13.8802 28.0723 13.7047 27.975 13.5539C27.8776 13.4032 27.739 13.2836 27.5756 13.2093L22.5 10.9021V6.56244C22.4999 6.39719 22.4562 6.2349 22.3732 6.09199C22.2903 5.94909 22.171 5.83065 22.0275 5.74869L15.465 1.99869C15.3234 1.91779 15.1631 1.87524 15 1.87524C14.8369 1.87524 14.6766 1.91779 14.535 1.99869L7.9725 5.74869C7.82901 5.83065 7.70974 5.94909 7.62676 6.09199C7.54378 6.2349 7.50005 6.39719 7.5 6.56244V10.9021L2.42437 13.2084C2.26088 13.2827 2.12219 13.4025 2.0248 13.5534C1.9274 13.7043 1.87541 13.88 1.875 14.0596V21.5624C1.875 21.9281 2.08781 22.2599 2.41969 22.4137L14.6072 28.0387C14.7303 28.0956 14.8643 28.1251 15 28.1251C15.1357 28.1251 15.2697 28.0956 15.3928 28.0387L27.5803 22.4137C27.9122 22.2599 28.125 21.9281 28.125 21.5624V14.0596ZM20.625 8.17775V10.0499L18.8006 9.22025L20.625 8.17775ZM15.9375 8.69713V4.42775L19.6725 6.56244L15.9375 8.69713ZM14.0625 4.42775V8.69713L10.3275 6.56244L14.0625 4.42775ZM9.375 8.17775L11.1994 9.22025L9.375 10.0499V8.17775ZM3.75 15.5278L7.5 17.2584V18.9431L3.75 17.2124V15.5278ZM4.6875 21.3956L3.75 20.9624V19.2778L4.6875 19.7109V21.3956ZM10.3125 22.3124V23.9906L6.5625 22.2609V20.5762L10.3134 22.3068L10.3125 22.3124ZM14.0625 25.7221L12.1875 24.8568V23.1721L14.0625 24.0374V25.7221ZM14.0625 21.9721L9.3525 19.7981C9.35719 19.7606 9.375 19.7268 9.375 19.6874V18.1237L14.0625 20.2874V21.9721ZM15 18.6543L5.06344 14.069L7.5 12.9618V14.0624C7.5 14.3111 7.59877 14.5495 7.77459 14.7254C7.9504 14.9012 8.18886 14.9999 8.4375 14.9999C8.68614 14.9999 8.9246 14.9012 9.10041 14.7254C9.27623 14.5495 9.375 14.3111 9.375 14.0624V12.1096L13.2066 10.3678L14.0625 10.8562V16.8749C14.0625 17.1236 14.1613 17.362 14.3371 17.5379C14.5129 17.7137 14.7514 17.8124 15 17.8124C15.2486 17.8124 15.4871 17.7137 15.6629 17.5379C15.8387 17.362 15.9375 17.1236 15.9375 16.8749V10.8562L16.7934 10.3678L20.625 12.1096V14.0624C20.625 14.3111 20.7238 14.5495 20.8996 14.7254C21.0754 14.9012 21.3139 14.9999 21.5625 14.9999C21.8111 14.9999 22.0496 14.9012 22.2254 14.7254C22.4012 14.5495 22.5 14.3111 22.5 14.0624V12.9618L24.9366 14.0681L15 18.6543ZM20.6475 19.7981L15.9375 21.9721V20.2874L20.625 18.1237V19.6874C20.625 19.7268 20.6428 19.7606 20.6475 19.7981ZM17.8125 24.8568L15.9375 25.7221V24.0374L17.8125 23.1721V24.8568ZM23.4375 22.2599L19.6875 23.9915V22.3124L19.6866 22.3068L23.4375 20.5762V22.2599ZM26.25 20.9624L25.3125 21.3956V19.7109L26.25 19.2778V20.9624ZM26.25 17.2124L22.5 18.9431V17.2593L26.25 15.5287V17.2124Z" fill="#E0E3E4"/>
</svg>

<svg width="30" height="30" fill="none" xmlns="http://www.w3.org/2000/svg"><path d="M28.125 14.06a.939.939 0 00-.55-.85L22.5 10.901v-4.34a.938.938 0 00-.473-.813l-6.562-3.75a.937.937 0 00-.93 0l-6.563 3.75a.938.938 0 00-.472.813v4.34l-5.076 2.306a.937.937 0 00-.549.852v7.502a.94.94 0 00.545.852l12.187 5.625a.936.936 0 00.786 0l12.187-5.625a.938.938 0 00.545-.852V14.06zm-7.5-5.882v1.872l-1.824-.83 1.824-1.042zm-4.688.52v-4.27l3.736 2.134-3.735 2.135zm-1.874-4.27v4.27l-3.736-2.136 3.736-2.134zm-4.688 3.75l1.824 1.042-1.824.83V8.178zm-5.625 7.35l3.75 1.73v1.685l-3.75-1.73v-1.685zm.938 5.868l-.938-.434v-1.684l.938.433v1.685zm5.625.916v1.679l-3.75-1.73v-1.685l3.75 1.73v.006zm3.75 3.41l-1.876-.865v-1.685l1.876.865v1.685zm0-3.75l-4.71-2.174c.004-.037.022-.071.022-.11v-1.564l4.688 2.163v1.685zM15 18.654L5.063 14.07 7.5 12.962v1.1a.938.938 0 001.875 0V12.11l3.832-1.742.855.488v6.019a.938.938 0 001.876 0v-6.019l.855-.488 3.832 1.742v1.952a.938.938 0 001.875 0v-1.1l2.437 1.106L15 18.654zm5.648 1.144l-4.71 2.174v-1.685l4.687-2.163v1.563c0 .04.018.074.023.111zm-2.835 5.059l-1.875.865v-1.685l1.874-.865v1.685zm5.625-2.597l-3.75 1.731v-1.679l-.001-.005 3.75-1.73v1.683zm2.812-1.298l-.938.434V19.71l.938-.433v1.684zm0-3.75l-3.75 1.731V17.26l3.75-1.73v1.683z" fill="#E0E3E4"/></svg>
